shader Shuffle(
    color Color = color(0,0,0),
    output float Red = 0.0,
    output float Green = 0.0,
    output float Blue = 0.0,
){
    Red = Color[0];
    Green = Color[1];
    Blue = Color[2];
}