shader TS_Mix(
    color c1 = 0[[string label = "Color One"]],
    color c2 = 0[[string label = "Color Two"]],
    float m_lvl = 1[[
        string label = "Mix level",
        string help = "If the <b>mix level = 1</b>, color two will be displayed",
        float min = 0,
        float max = 1
    ]],

    output color Color = 0,
){
    Color = mix(c1,c2,m_lvl);
}