shader TS_Plus(

    color i_c_one = 0
    [[ string label = "Color One"]],
    color i_c_two = 0
    [[ string label = "Color Two"]],

    float i_f_one = 0
    [[ string label = "Float One"]],
    float i_f_two = 0
    [[ string label = "Float Two"]],

    output color Color = 0,
    output float Float = 0,
){
    Color = i_c_one + i_c_two;
    Float = i_f_one + i_f_two;
}