shader TS_Texture(
    string file_path = ""
    [[string widget = "fileInput",
      string label = "File Path"]],

    output color Color = 0,

){  
    float st[2];
    getattribute("st", st);

    
    Color = texture(file_path, st[0], 1 - st[1]);
}
